public/assets/tracks/ar-vr.svg

<svg fill="none" height="131" viewBox="0 0 131 131" width="131" xmlns="http://www.w3.org/2000/svg"><path d="m100.814 79.381v-29.2772c0-3.6724-1.9377-7.0388-5.1001-8.824l-25.5028-14.6896c-1.5812-.9181-3.3153-1.3772-5.1005-1.3772s-3.5194.4591-5.1006 1.3772l-25.5028 14.6386c-3.1624 1.8362-5.1006 5.2026-5.1006 8.875v29.2772c0 3.6724 1.9382 7.0388 5.1006 8.824l25.5028 14.69c1.5812.918 3.3154 1.377 5.1006 1.377s3.5193-.459 5.1005-1.377l25.5028-14.69c3.1624-1.7852 5.1001-5.1516 5.1001-8.824zm-40.804 11.7313-20.4023-11.7313v-23.6156l20.4023 11.8843zm5.1006-32.2865-20.1983-11.7824 20.1983-11.6292 20.1982 11.6292zm25.5028 20.5552-20.4023 11.7313v-23.4626l20.4023-11.8843z" fill="#fff"/><g stroke="#fff" stroke-linecap="round" stroke-width="8"><path d="m37.7937 12.6324h-22.1613c-1.6568 0-3 1.3431-3 3v22.1613"/><path d="m117.471 37.7937v-22.1613c0-1.6568-1.343-3-3-3h-22.1612"/><path d="m92.3098 117.471h22.1612c1.657 0 3-1.343 3-3v-22.1612"/><path d="m12.6324 92.3098v22.1612c0 1.657 1.3432 3 3 3h22.1613"/></g></svg>

<svg fill="none" viewBox="0 0 131 131"><path fill="#fff" d="M100.814 79.381V50.104c0-3.673-1.938-7.039-5.1-8.824L70.21 26.59c-1.581-.918-3.315-1.377-5.1-1.377s-3.52.46-5.101 1.377L34.507 41.23a10.237 10.237 0 00-5.1 8.875V79.38c0 3.672 1.938 7.039 5.1 8.824l25.503 14.69c1.581.918 3.315 1.377 5.1 1.377s3.52-.459 5.101-1.377l25.503-14.69c3.162-1.785 5.1-5.152 5.1-8.824zM60.01 91.112L39.608 79.381V55.765L60.01 67.65zm5.1-32.286L44.913 47.043l20.199-11.629 20.198 11.63zM90.614 79.38L70.211 91.112V67.65l20.402-11.885z"/><path stroke="#fff" stroke-linecap="round" stroke-width="8" d="M37.794 12.632H15.632a3 3 0 00-3 3v22.162m104.839 0V15.632a3 3 0 00-3-3H92.31m0 104.839h22.161a3 3 0 003-3V92.31m-104.839 0v22.161a3 3 0 003 3h22.162"/></svg>
